!!!OTL: Reiters Abschied.
!!!ARE: Europa, Mitteleuropa, Deutschland
!!!SCT: A0435
!!!TXL: @@GMH
!!!YEM: Copyright 1995, estate of Helmut Schaffrath.
**kern	**text
*M4/2	*
*met(c|)	*
*clefC3	*
*k[]	*
*C:ion	*
=1	=1
!LO:TX:a:t=jon.	!
1ryy	.
2ryy	.
{2c	I._So
=2	=2
2c	wünſch
2G	ich
2c	ir
2d	ein
=3	=3
*lig	*
2.e	gu-
8dL	.
8cJ	.
2d	.
*Xlig	*
2d	-te
=4	=4
0c	nacht,
=5	=5
2r}	.
{2e	bei
2e	der
2e	ich
=6	=6
*lig	*
4d	war
4c	.
4B	.
4A	.
2G	.
*Xlig	*
2c	al-
=7	=7
1d	-lei-
1c	-ne;}
=8	=8
1r	.
2r}	.
{2c	Ein
=9	=9
2c	traw-
2G	-rig
2c	wort
2d	ſie
=10	=10
*lig	*
2.e	ʒu
8dL	.
8cJ	.
2d	.
*Xlig	*
2d	mir
=11	=11
0c	ſprach:
=12	=12
2r}	.
{2e	wie
2e	ʒwei
2e	wie
=13	=13
*lig	*
4d	müſ-
4c	.
4B	.
4A	.
2G	.
*Xlig	*
2c	-ſen
=14	=14
1d	ſchei-
1c	-den!}
=15	=15
2r}	.
{2e	Jch
2e	ſcheid
2d	mit
=16	=16
1e	leid,
2r	.
2g	gott
=17	=17
2f	weiß
2d	die
1e	ʒeit
=18	=18
2r}	.
{2c	widrkom-
2c	.
2e	-men
=19	=19
4d	das
4c	.
4B	.
4A	.
2G	.
2c	bringt
=20	=20
1d	freu-
1cll}	-den.
==	==
!!!GTL: Landsknecht- und Reiterlieder
!!!AGN: Romanze, Ballade, Lied, Jaegerlied
!! Newsidler, Lautenbuch 1536 ua.
!!!ONB: ESAC (Essen Associative Code) Database: ALTDEU
!!!AMT: simple quadruple
!!!AIN: vox
!!!EED: Helmut Schaffrath
!!!EEV: 1.0
!!!RDF**kern: l = terminal long
!!!AMD: Ionian
!!!URL-scan: https://rosdok.uni-rostock.de/mcrviewer/recordIdentifier/rosdok_ppn738218359/iview2/phys_0613.iview2?x=-27.342981878423416&y=1131.707488830667&scale=0.6340035897852&rotation=0&layout=singlePageLayout&logicalDiv=log_0016
!!!ENC: Anna Maria Matuszewska
!!!EEV: 2024/18/03
*-	*-
